svgs/duotone/rabbit-running.svg

<svg xmlns="http://www.w3.org/2000/svg" viewBox="0 0 576 512"><!--! Font Awesome Pro 6.3.0 by @fontawesome - https://fontawesome.com License - https://fontawesome.com/license (Commercial License) Copyright 2023 Fonticons, Inc. --><defs><style>.fa-secondary{opacity:.4}</style></defs><path class="fa-primary" d="M96.9 176.3C82.3 200.6 79.19 229.1 86.58 254.9C77.79 260.7 67.28 264 56 264C25.07 264 0 238.9 0 208C0 177.1 25.07 152 56 152C73.41 152 88.97 159.9 99.24 172.4L98.97 172.9L96.9 176.3zM480 240C480 231.2 487.2 224 496 224C504.8 224 512 231.2 512 240C512 248.8 504.8 256 496 256C487.2 256 480 248.8 480 240z"/><path class="fa-secondary" d="M458.6 37.2L460.7 39.35C496.9 74.8 513.1 125.5 504.7 174.8C509.8 177.7 514.6 181.1 519.2 184.8L553.8 213C567.8 224.5 576 241.6 576 259.7C576 293 549 320 515.7 320H414.4L352 356.1V340.5C352 283.3 314.1 233.1 259.2 217.4L228.4 208.6C219.9 206.2 211 211.1 208.6 219.6C206.2 228.1 211.1 236.1 219.6 239.4L250.4 248.2C291.6 259.1 320 297.6 320 340.5V384H416C433.7 384 448 398.3 448 416C448 433.7 433.7 448 416 448H300.4C284.4 448 269 442 257.2 431.2L114.1 300.8C80.14 268.9 72.58 216.8 96.9 176.3L98.97 172.9C115.7 145 145.7 128 178.2 128C213.8 128 248.8 137.3 279.7 154.9L384.8 215C386.1 207.2 388.7 199.9 392.4 193.3C355.3 174.1 325.9 143.1 311 103.6C306.6 91.94 311.5 78.68 322.2 72.46C327.8 69.23 334.5 68.27 340.8 69.85L344.2 70.7C391.3 82.58 429.4 115.1 447.8 160C448.3 160 448.9 160 449.4 160C457.9 160 466.3 160.1 474.5 162.9C464.1 131.8 445.5 104.7 421.2 84.08C421.6 72.18 423.5 60.22 426.7 48.46L427.6 45.51C429.3 39.16 434.3 34.22 440.7 32.51C447.1 30.81 453.9 32.59 458.6 37.2L458.6 37.2zM496 224C487.2 224 480 231.2 480 240C480 248.8 487.2 256 496 256C504.8 256 512 248.8 512 240C512 231.2 504.8 224 496 224zM142.2 421.4L175.2 399.4L223.8 443.9L177.8 474.6C163 484.4 143.2 480.5 133.4 465.8C123.6 451 127.5 431.2 142.3 421.4H142.2z"/></svg>

<svg xmlns="http://www.w3.org/2000/svg" viewBox="0 0 576 512"><!--! Font Awesome Pro 6.4.0 by @fontawesome - https://fontawesome.com License - https://fontawesome.com/license (Commercial License) Copyright 2023 Fonticons, Inc. --><defs><style>.fa-secondary{opacity:.4}</style></defs><path class="fa-primary" d="M99 172.9l.3-.4C89 159.9 73.4 152 56 152c-30.9 0-56 25.1-56 56s25.1 56 56 56c11.3 0 21.8-3.3 30.6-9.1c-7.4-25.8-4.3-54.3 10.3-78.6l2.1-3.4zM496 256a16 16 0 1 0 0-32 16 16 0 1 0 0 32z"/><path class="fa-secondary" d="M458.6 37.2l2.2 2.1c36.2 35.5 52.3 86.2 43.9 135.5c5.1 2.9 9.9 6.3 14.5 10L553.8 213c14 11.4 22.2 28.6 22.2 46.7c0 33.3-27 60.3-60.3 60.3H414.4l-6.4 3.7-56 32.4V340.5c0-57.2-37.9-107.4-92.8-123.1l-30.8-8.8c-8.5-2.4-17.4 2.5-19.8 11s2.5 17.4 11 19.8l30.8 8.8C291.6 260 320 297.6 320 340.5V384h15.2H352h64c17.7 0 32 14.3 32 32s-14.3 32-32 32H300.4c-16 0-31.4-6-43.2-16.8L115 300.8c-34.8-31.9-42.4-84-18.1-124.5l2.1-3.4C115.7 145 145.7 128 178.2 128c35.6 0 70.6 9.3 101.5 26.9L384.8 215c1.2-7.8 3.9-15.1 7.6-21.8c-37.1-18.3-66.5-50.2-81.4-89.7c-4.4-11.6 .4-24.9 11.2-31.1c5.6-3.2 12.3-4.2 18.5-2.6l3.4 .9C391.3 82.6 429.4 116 447.8 160c.6 0 1.1 0 1.7 0c8.5 0 16.9 1 25 2.9c-10.3-31-29-58.1-53.3-78.8c.4-11.9 2.3-23.9 5.5-35.6l.8-2.9c1.8-6.3 6.8-11.3 13.1-13s13.2 .1 17.9 4.7zM142.2 421.4l32.9-22 48.6 44.5-46 30.7c-14.7 9.8-34.6 5.8-44.4-8.9s-5.8-34.6 8.9-44.4zM512 240a16 16 0 1 0 -32 0 16 16 0 1 0 32 0z"/></svg>
